svgs/sharp-light/forward-fast.svg

<svg xmlns="http://www.w3.org/2000/svg" viewBox="0 0 512 512"><!--! Font Awesome Pro 6.6.0 by @fontawesome - https://fontawesome.com License - https://fontawesome.com/license (Commercial License) Copyright 2024 Fonticons, Inc. --><path d="M480 64l0 16 0 138L288 86 256 64l0 38.8L256 240 32 86 0 64l0 38.8L0 409.2 0 448l32-22L256 272l0 137.2 0 38.8 32-22L480 294l0 138 0 16 32 0 0-16 0-160 0-32 0-160 0-16-32 0zM288 124.8L478.8 256 288 387.2l0-262.3zM222.8 256L32 387.2l0-262.3L222.8 256z"/></svg>

<svg xmlns="http://www.w3.org/2000/svg" viewBox="0 0 512 512"><!--! Font Awesome Pro 6.4.0 by @fontawesome - https://fontawesome.com License - https://fontawesome.com/license (Commercial License) Copyright 2023 Fonticons, Inc. --><path d="M480 64V80 218L288 86 256 64v38.8V240L32 86 0 64v38.8V409.2 448l32-22L256 272V409.2 448l32-22L480 294V432v16h32V432 272 240 80 64H480zM288 124.8L478.8 256 288 387.2V124.8zM222.8 256L32 387.2V124.8L222.8 256z"/></svg>
